public/logos/1867/CNR.svg

<svg version="1.1" id="Layer_1" xmlns="http://www.w3.org/2000/svg" xmlns:xlink="http://www.w3.org/1999/xlink" x="0" y="0" viewBox="0 0 283.5 283.5" xml:space="preserve"><style>.st0{fill:#006f45}</style><symbol id="Nouveau_symbole_4" viewBox="-25.5 -25.5 51 51"><circle transform="rotate(-67.5 0 0)" class="st0" r="25.5"/><path d="M0 2.8l-1.4 22.7h2.8L0 2.8zm-6.5 21.9l-2.7-.9L-.8 2.7l-5.7 22zm-7.3-3.2l-2.3-1.7L-1.7 2.3l-12.1 19.2zm-6-5.4l-1.7-2.3L-2.3 1.7l-17.5 14.4zm-4-6.9l-.9-2.7 22-5.7-21.1 8.4zm-1.7-7.8v-2.8L-2.8 0l-22.7 1.4zm.8-7.9l.9-2.7L-2.7-.8l-22-5.7zm3.2-7.3l1.7-2.3L-2.3-1.7l-19.2-12.1zm5.4-6l2.3-1.7L-1.7-2.3l-14.4-17.5zm6.9-4l2.7-.9 5.7 22-8.4-21.1zm7.8-1.7h2.8L0-2.8l-1.4-22.7zm7.9.8l2.7.9L.9-2.7l5.6-22zm7.3 3.2l2.3 1.7L1.7-2.3l12.1-19.2zm6 5.4l1.7 2.3L2.3-1.7l17.5-14.4zm4 6.9l.9 2.7-22 5.7 21.1-8.4zm1.7 7.8v2.8L2.8 0l22.7-1.4zm-.8 7.9l-.9 2.7L2.7.9l22 5.6zm-3.2 7.3l-1.7 2.3L2.3 1.7l19.2 12.1zm-5.4 6l-2.3 1.7L1.7 2.3l14.4 17.5zm-6.9 4l-2.7.9-5.7-22 8.4 21.1z" fill="#8aa48c"/><circle class="st0" r="8.5"/><path class="st0" d="M-7.1-4.2v8.4h2.8l4.6 2-4.6-2h-2.8v.5C-8 3.4-8.5 1.7-8.5 0c0-1.7.5-3.4 1.4-4.7v.5zM7.1 4.2v-8.9C8-3.4 8.5-1.7 8.5 0c0 1.7-.5 3.4-1.4 4.7v-.5z"/><path d="M-4.3 4.2l4.6 2 3.5 1.5c-1.2.5-2.5.8-3.8.8-3 0-5.6-1.5-7.1-3.8v-.5h2.8zm8.6-8.4l-8-3.4c1.1-.6 2.4-.9 3.7-.9 3 0 5.6 1.5 7.1 3.8v.5H4.3z" fill="#ef413d"/><path d="M-4.3 4.2H7.1v.5C6.2 6 5.1 7 3.7 7.6L.2 6.2l-4.5-2zm8 3.4L.2 6.2zM-7.1-4.2v-.5c.9-1.3 2-2.3 3.4-2.9l8 3.4H-7.1z"/><path d="M1 2.6V1.4H.5v1.2H0V1h-.5v1.6H-1V.7h-.5v1.9H-2V.3h-.5v2.3H-3V0h-.5v2.6H-4v-3h-.5v3H-5V-.7h-.5v3.3h-.8v-4.9L5.2 2.6zm3.5-5.2H5V.7h.5v-3.3h.8v4.9L-5.2-2.6H-1v1.2h.5v-1.2H0V-1h.5v-1.6H1v1.9h.5v-1.9H2v2.3h.5v-2.3H3V0h.5v-2.6H4v3h.5z" fill="#fff"/><path d="M7.1-4.2v8.4H-7.1v-8.4H7.1zM-6.3 2.6h.8V-.8h.5v3.4h.5v-3h.5v3h.5V0h.5v2.7h.5V.3h.5v2.3h.5v-2h.5v2h.5V1H0v1.6h.5V1.4H1v1.3h4.2l-11.5-5v4.9zM4-2.6h-.5V0H3v-2.7h-.5v2.3H2v-2.3h-.5v2H1v-2H.5V-1H0v-1.6h-.5v1.3H-1v-1.3h-4.2L6.3 2.3v-4.9h-.8V.8H5v-3.4h-.5v3H4v-3z"/></symbol><path class="st0" d="M280.6 141.7c0 76.7-62.2 138.9-138.9 138.9S2.8 218.4 2.8 141.7 65 2.8 141.7 2.8 280.6 65 280.6 141.7z"/><defs><path id="SVGID_1_" d="M263.3 141.7c0 67.1-54.4 121.5-121.5 121.5S20.3 208.8 20.3 141.7 74.6 20.2 141.7 20.2c67.2 0 121.6 54.4 121.6 121.5z"/></defs><clipPath id="SVGID_2_"><use xlink:href="#SVGID_1_" overflow="visible"/></clipPath><g clip-path="url(#SVGID_2_)"><use xlink:href="#Nouveau_symbole_4" width="51" height="51" x="-25.5" y="-25.5" transform="matrix(6.8055 0 0 -6.8055 141.73 141.736)" overflow="visible"/></g><use xlink:href="#SVGID_1_" overflow="visible" fill="none" stroke="#fff" stroke-width=".5" stroke-miterlimit="10"/></svg>

<?xml version="1.0" encoding="utf-8"?>
<!-- Generator: Adobe Illustrator 25.0.1, SVG Export Plug-In . SVG Version: 6.00 Build 0)  -->
<svg version="1.1" id="Layer_1" xmlns="http://www.w3.org/2000/svg" xmlns:xlink="http://www.w3.org/1999/xlink" x="0px" y="0px"
	 viewBox="0 0 283.5 283.5" style="enable-background:new 0 0 283.5 283.5;" xml:space="preserve">
<style type="text/css">
	.st0{fill:#006F45;}
	.st1{fill:#8AA48C;}
	.st2{display:none;fill:#8AA48C;}
	.st3{display:none;fill:#006F45;}
	.st4{fill:#EF413D;}
	.st5{fill:#FFFFFF;}
</style>
<symbol  id="Nouveau_symbole_4" viewBox="-25.5 -25.5 51 51">
	
		<ellipse transform="matrix(0.3827 -0.9239 0.9239 0.3827 -5.543277e-06 3.703899e-06)" class="st0" cx="0" cy="0" rx="25.5" ry="25.5"/>
	<path class="st1" d="M0,2.8l-1.4,22.7h2.8L0,2.8z M-6.5,24.7l-2.7-0.9l8.4-21.1L-6.5,24.7z M-13.8,21.5l-2.3-1.7L-1.7,2.3
		L-13.8,21.5z M-19.8,16.1l-1.7-2.3L-2.3,1.7L-19.8,16.1z M-23.8,9.2l-0.9-2.7l22-5.7L-23.8,9.2z M-25.5,1.4v-2.8L-2.8,0L-25.5,1.4z
		 M-24.7-6.5l0.9-2.7l21.1,8.4L-24.7-6.5z M-21.5-13.8l1.7-2.3L-2.3-1.7L-21.5-13.8z M-16.1-19.8l2.3-1.7L-1.7-2.3L-16.1-19.8z
		 M-9.2-23.8l2.7-0.9l5.7,22L-9.2-23.8z M-1.4-25.5h2.8L0-2.8L-1.4-25.5z M6.5-24.7l2.7,0.9L0.9-2.7L6.5-24.7z M13.8-21.5l2.3,1.7
		L1.7-2.3L13.8-21.5z M19.8-16.1l1.7,2.3L2.3-1.7L19.8-16.1z M23.8-9.2l0.9,2.7l-22,5.7L23.8-9.2z M25.5-1.4v2.8L2.8,0L25.5-1.4z
		 M24.7,6.5l-0.9,2.7L2.7,0.9L24.7,6.5z M21.5,13.8l-1.7,2.3L2.3,1.7L21.5,13.8z M16.1,19.8l-2.3,1.7L1.7,2.3L16.1,19.8z M9.2,23.8
		l-2.7,0.9l-5.7-22L9.2,23.8z"/>
	<circle class="st0" cx="0" cy="0" r="8.5"/>
	<path class="st2" d="M0,2.8l-1.4,22.7h2.8L0,2.8z M-6.5,24.7l-2.7-0.9l8.4-21.1L-6.5,24.7z M-13.8,21.5l-2.3-1.7L-1.7,2.3
		L-13.8,21.5z M-19.8,16.1l-1.7-2.3L-2.3,1.7L-19.8,16.1z M-23.8,9.2l-0.9-2.7l22-5.7L-23.8,9.2z M-25.5,1.4v-2.8L-2.8,0L-25.5,1.4z
		 M-24.7-6.5l0.9-2.7l21.1,8.4L-24.7-6.5z M-21.5-13.8l1.7-2.3L-2.3-1.7L-21.5-13.8z M-16.1-19.8l2.3-1.7L-1.7-2.3L-16.1-19.8z
		 M-9.2-23.8l2.7-0.9l5.7,22L-9.2-23.8z M-1.4-25.5h2.8L0-2.8L-1.4-25.5z M6.5-24.7l2.7,0.9L0.9-2.7L6.5-24.7z M13.8-21.5l2.3,1.7
		L1.7-2.3L13.8-21.5z M19.8-16.1l1.7,2.3L2.3-1.7L19.8-16.1z M23.8-9.2l0.9,2.7l-22,5.7L23.8-9.2z M25.5-1.4v2.8L2.8,0L25.5-1.4z
		 M24.7,6.5l-0.9,2.7L2.7,0.9L24.7,6.5z M21.5,13.8l-1.7,2.3L2.3,1.7L21.5,13.8z M16.1,19.8l-2.3,1.7L1.7,2.3L16.1,19.8z M9.2,23.8
		l-2.7,0.9l-5.7-22L9.2,23.8z"/>
	<path class="st3" d="M8.5,0c0-4.7-3.8-8.5-8.5-8.5c-4.7,0-8.5,3.8-8.5,8.5c0,4.7,3.8,8.5,8.5,8.5C4.7,8.5,8.5,4.7,8.5,0z"/>
	<g>
		<path class="st0" d="M-7.1-4.2L-7.1-4.2l0,8.4h2.8l4.6,2l-4.6-2h-2.8v0.5C-8,3.4-8.5,1.7-8.5,0c0-1.7,0.5-3.4,1.4-4.7V-4.2z"/>
		<path class="st0" d="M7.1,4.2v-8.4h0v-0.5C8-3.4,8.5-1.7,8.5,0c0,1.7-0.5,3.4-1.4,4.7L7.1,4.2L7.1,4.2z"/>
		<path class="st4" d="M-4.3,4.2l4.6,2l3.5,1.5C2.6,8.2,1.3,8.5,0,8.5c-3,0-5.6-1.5-7.1-3.8V4.2H-4.3z"/>
		<path class="st4" d="M4.3-4.2l-8-3.4C-2.6-8.2-1.3-8.5,0-8.5c3,0,5.6,1.5,7.1,3.8v0.5H4.3z"/>
		<path d="M-4.3,4.2H7.1v0.5C6.2,6,5.1,7,3.7,7.6L0.2,6.2L-4.3,4.2z"/>
		<polygon points="3.7,7.6 3.7,7.6 0.2,6.2 		"/>
		<path d="M-7.1-4.2v-0.5C-6.2-6-5.1-7-3.7-7.6l8,3.4H-7.1z"/>
		<rect x="-4.1" y="-5.9" transform="matrix(0.9192 -0.3939 0.3939 0.9192 2.3583 -0.359)" width="8.7" height="0"/>
		<polygon class="st5" points="1,2.6 1,1.4 0.5,1.4 0.5,2.6 0,2.6 0,1 -0.5,1 -0.5,2.6 -1,2.6 -1,0.7 -1.5,0.7 -1.5,2.6 -2,2.6 
			-2,0.3 -2.5,0.3 -2.5,2.6 -3,2.6 -3,0 -3.5,0 -3.5,2.6 -4,2.6 -4,-0.4 -4.5,-0.4 -4.5,2.6 -5,2.6 -5,-0.7 -5.5,-0.7 -5.5,2.6 
			-6.3,2.6 -6.3,-2.3 5.2,2.6 		"/>
		<polygon class="st5" points="4.5,-2.6 5,-2.6 5,0.7 5.5,0.7 5.5,-2.6 6.3,-2.6 6.3,2.3 -5.2,-2.6 -1,-2.6 -1,-1.4 -0.5,-1.4 
			-0.5,-2.6 0,-2.6 0,-1 0.5,-1 0.5,-2.6 1,-2.6 1,-0.7 1.5,-0.7 1.5,-2.6 2,-2.6 2,-0.3 2.5,-0.3 2.5,-2.6 3,-2.6 3,0 3.5,0 
			3.5,-2.6 4,-2.6 4,0.4 4.5,0.4 		"/>
		<path d="M7.1-4.2v8.4H-7.1v-8.4H7.1z M-6.3,2.6h0.8v-3.4H-5v3.4h0.5v-3H-4v3h0.5V0H-3v2.7h0.5V0.3H-2v2.3h0.5v-2H-1v2h0.5V1H0v1.6
			h0.5V1.4H1v1.3h4.2L-6.3-2.3V2.6z M4-2.6H3.5V0H3v-2.7H2.5v2.3H2v-2.3H1.5v2H1v-2H0.5V-1H0v-1.6h-0.5v1.3H-1v-1.3h-4.2L6.3,2.3
			v-4.9H5.5v3.4H5v-3.4H4.5v3H4V-2.6z"/>
	</g>
</symbol>
<g>
	<path class="st0" d="M280.6,141.7c0,76.7-62.2,138.9-138.9,138.9C65,280.6,2.8,218.4,2.8,141.7C2.8,65,65,2.8,141.7,2.8
		C218.4,2.8,280.6,65,280.6,141.7z"/>
	<g>
		<defs>
			<path id="SVGID_1_" d="M263.3,141.7c0,67.1-54.4,121.5-121.5,121.5c-67.1,0-121.5-54.4-121.5-121.5S74.6,20.2,141.7,20.2
				C208.9,20.2,263.3,74.6,263.3,141.7z"/>
		</defs>
		<clipPath id="SVGID_2_">
			<use xlink:href="#SVGID_1_"  style="overflow:visible;"/>
		</clipPath>
		<g style="clip-path:url(#SVGID_2_);">
			
				<use xlink:href="#Nouveau_symbole_4"  width="51" height="51" x="-25.5" y="-25.5" transform="matrix(6.8055 0 0 -6.8055 141.7295 141.7357)" style="overflow:visible;"/>
		</g>
		<use xlink:href="#SVGID_1_"  style="overflow:visible;fill:none;stroke:#FFFFFF;stroke-width:0.5;stroke-miterlimit:10;"/>
	</g>
</g>
</svg>
